X:143
T:Jackson's Jig
M:6/8
K:G
B2G Bcd|e2c efg|dcB gdB|A2G ABc|\
BGA Bcd|ecd efg|dcB gdB|cAF G3::\
gfg bag|fed efg|dcB gdB|A2G ABd|\
gfg bag|fed efg|dcB gdB|cAF G2f::\
gfg bag|fed efg|dcB gdB|A2G ABc|\
BGA Bcd|ecd efg|dcB gdB|cAF G3||
